svg/email.svg

<svg width="24" height="24" viewBox="0 0 24 24" fill="none" xmlns="http://www.w3.org/2000/svg">
<path d="M2 6C2 4.89543 2.89543 4 4 4H20C21.1046 4 22 4.89543 22 6V18C22 19.1046 21.1046 20 20 20H4C2.89543 20 2 19.1046 2 18V6ZM5.51859 6L12 11.6712L18.4814 6H5.51859ZM20 7.32877L12.6585 13.7526C12.2815 14.0825 11.7185 14.0825 11.3415 13.7526L4 7.32877V18H20V7.32877Z" fill="#0D0D0D"/>
</svg>

<svg width="24" height="24" fill="none" xmlns="http://www.w3.org/2000/svg"><path d="M2 6a2 2 0 012-2h16a2 2 0 012 2v12a2 2 0 01-2 2H4a2 2 0 01-2-2V6zm3.519 0L12 11.671 18.481 6H5.52zM20 7.329l-7.341 6.424a1 1 0 01-1.318 0L4 7.329V18h16V7.329z" fill="#0D0D0D"/></svg>
